X:1
T:Title
%%score [ ( 1 2 ) ( 3 4 ) ]
L:1/8
Q:1/4=108
M:4/4
K:D
V:1 treble nm="Midi_74"
V:2 treble 
V:3 bass nm="Midi_69"
V:4 bass 
V:1
"^Strength & stay (11 10. 11 10)""^O Strength and Stay""^St. Ambrose (c. 340-97)\ntr. J. Ellerton (1826-93) & \nF. J. A. Hort (1828-92)" F4 F2 G2 | %1
w: |
w: |
w: |
 A6 B2 | A2 F2 D2 G2 | (F2 E2) F4 | F4 ^G2"^John Bacchus Dykes\n(1823-76)" G2 | A6 B2 | %6
w: |||||
w: |||||
w: |||||
 c2 E2 F2 ^G2 | A8 | A4 B2 c2 | d4 (D2 E2) | F2 F2 G2 A2 | B4 B4 | E4 F2 G2 | A2 B2 c2 d2 | %14
w: |||||||* * * its|
w: |||||||* * * th'e-|
w: ||||||||
 F4 (G2 E2) | D8 |] %16
w: chang- es *||
w: ter- nal *||
w: art a\- *||
V:2
 D4 D2 D2 | D6 B,2 | C2 C2 D2 D2 | (D2 C2) D4 | F4 ^E2 E2 | F6 F2 | E2 E2 E2 D2 | C8 | E4 E2 E2 | %9
w: O strength and|stay up-|hold- ing all cre-|a\- * tion,|Who ev- er|* thy-|self un- moved a-|bide,|Yet day by|
w: Grant to life's|day a|calm un- cloud- ed|end\- * ing,|An eve un-|* by|sha- dows of de-|cay,|The bright- ness|
w: Hear us, O|Fa- ther,|grac- ious and for-|giv\- * ing,|Through Je- sus|* thy|co- e- ter- nal|Word,|Who with the|
 D4 (D2 C2) | D2 D2 D2 D2 | (D2 F2) (E2 D2) | C4 C2 C2 | D2 D2 D2 D2 | D4 C4 | D8 |] %16
w: * the *|light in due gra-|da\- * tion *|From hour to|hour through all *||guide;|
w: * a *|ho- ly death- bed|blend\- * ing *|With dawn- ing|glo- ries of *||day.|
w: * ly *|Ghost by all things|liv\- * ing *|Now and to|end- less a- ges||dored.|
V:3
 A,4 A,2 G,2 | F,6 G,2 | F,2 A,2 A,2 G,2 | A,4 A,4 | A,4 B,2 B,2 | (=C4 B,2) A,2 | A,2 C2 C2 B,2 | %7
w: |||||dost * *||
w: |||||touched * *||
w: |||||Christ * *||
 A,8 | C4 B,2 A,2 | A,4 A,4 | A,2 A,2 G,2 F,2 | (G,2 A,2) B,4 | A,4 A,2 A,2 | A,2 A,2 ^G,2 G,2 | %14
w: |||||||
w: |||||||
w: |||||||
 A,4 (A,2 G,2) | F,8 |] %16
w: ||
w: ||
w: ||
V:4
 D,4 C,2 B,,2 | A,,6 G,,2 | A,,2 A,,2 B,,2 E,2 | A,,4 D,4 | D,4 D,2 D,2 | ^D,6 D,2 | %6
w: ||||||
w: ||||||
w: ||||||
 E,2 E,2 E,2 E,2 | A,,8 | A,4 G,2 G,2 | (F,2 G,2) (F,2 E,2) | D,2 C,2 B,,2 A,,2 | G,,4 G,4 | %12
w: |||day * * *|||
w: |||of * * *|||
w: |||Ho\- * * *|||
 A,4 G,2 G,2 | F,2 =F,2 E,2 E,2 | A,,4 A,,4 | D,8 |] %16
w: ||||
w: ||||
w: ||||

